X: 120016
T: CAWDOR FAIR
Q: "Highland Schottische."
R: Schottische.
%R: shottish
B: James Kerr "Merry Melodies" v.1 p.20 s.0 #16
Z: 2017 John Chambers <jc:trillian.mit.edu>
M: C
L: 1/8
K: G
|:\
vg>vfue>ud (e<g)B2 | d>e (d<B) d2d2 |\
g>fe>d (e<g)B2 | A>Bc>d e2e2 ::\
(d<g) g>a g>agf | (e<a) a>b a2g>a |\
b>ag>f g>fe>d | (e<g) (f<a) g2g2 :|

%%sep 1 1 500
%%sep 1 1 500

